X: 2
T: Coleman's March
T: with harmony
C: Traditional Southern
L: 1/8
M: 4/4
K: D
V:1 clef=treble name="M"
|: DE | "D"F6 EF | "G"G6 FG | "D"A3 B A2 F2 | "A" E6 FG |
V:2 clef=treble name="H1"
|: A2 | A2d2f3d  | G2B2d3B  |    AFGA d2 Ad |     c6 z2 |
V:3 clef=treble name="H2"
|: z2 |    D6 E2 |   D6 E2  |    D6      F2 |     A6 A2 |
V:1       
 "D"A2 d2 "A"c4 | "G"BcBA "D"FE D2 | "A"E3 F GF E2 | "D" D6 :|
V:2           
dc BA  cBA2 |    G2D2    A2 F2 |    EAce ed c2 |     d6 :|
V:3           
f4       e4 |    d6         B2 |    c4   B2 c2 |     A6 :|
V:1
|: Bc | "Bm" d4 d3 e | "A"c8 | "G"B2 Bc dc B2 | "D"A6 FG |
V:2
|: z2 |   fa b2 bc'bg| acde a2ef | g2 ga ba ge | d2fe d4 |
V:3
|: z2 |   f8         | e8        | d6       e2 | f8      | 
V:1       
 "D"A2 d2 "A"c4 | "G"BcBA "D"FE D2 | "A"E3 F GF E2 | "D" D6 :|
V:2           
dc BA  cBA2 |    G2D2    A2 F2 |    EAce ed c2 |     d6 :|
V:3           
f4       e4 |    d6         B2 |    c4   B2 c2 |     A6 :|

